X:17226
T:The Soporific
R:Hornpipe
S:
H:
N:This may not be the actual key as recorded - just what I picked to transcribe it in, or for convenience - I can't remember.
D:Deiseal
Z:Adrian Scahill
M:4/4
L:1/8
K:D
ABAF GE (3CB,A,|DFAF G2FE| FA (3Bcd BGED|(3CB,A, CE A2GE|\
FAFE EFEC|DFAB GECE|FD (3DDD DEFG|EDDC D4:||\
A,CEC AB(3cBA|Fddc d2Ad|BABF Adef|eBdc AB (3cBA|\
F3A dAFD|GABd BAFE|FD (3DDD DEFG|EDDC D4:||
